public/assets/img/check-dark.svg

<svg width="24" height="24" viewBox="0 0 24 24" fill="none" xmlns="http://www.w3.org/2000/svg">
<path d="M10.3945 19.3828C10.8633 19.3828 11.2305 19.1953 11.4883 18.8125L18.8008 7.53125C18.9883 7.25 19.0664 6.99219 19.0664 6.75C19.0664 6.10938 18.5977 5.64844 17.9414 5.64844C17.4883 5.64844 17.2148 5.80469 16.9414 6.24219L10.3633 16.6484L7.00391 12.4141C6.73828 12.0938 6.46484 11.9453 6.07422 11.9453C5.41016 11.9453 4.93359 12.4141 4.93359 13.0625C4.93359 13.3438 5.02734 13.6094 5.26953 13.8906L9.30859 18.8516C9.61328 19.2188 9.94922 19.3828 10.3945 19.3828Z" fill="#00FFAA"/>
</svg>

<svg width="24" height="24" fill="none" xmlns="http://www.w3.org/2000/svg"><path d="M10.395 19.383c.468 0 .835-.188 1.093-.57L18.801 7.53c.187-.281.265-.539.265-.781 0-.64-.468-1.102-1.125-1.102-.453 0-.726.157-1 .594l-6.578 10.406-3.36-4.234c-.265-.32-.538-.469-.929-.469-.664 0-1.14.47-1.14 1.117 0 .282.093.547.336.829l4.039 4.96c.304.368.64.532 1.086.532Z" fill="#0FA"/></svg>
